X:2229
T:Fairy music
T:The Wandescope 
C:Traditional
N:Man returning late in Sulby Glen heard the fairies playing the tune behind the hedge, went over and committed it to memory and played it on his fiddle. "Bollan Bane" story.
O:Isle of Man
Z:Clague collection
B:Kiaull Vannin #229 
M:6/8 
L:1/8 
K:D 
F/G/||:A2d F2G|A2F D3|E2F GFE|A2F D2 (E/!3!F/G/)| 
A2d F2G|A2F D2D|E2F GEC|D3 D3:| 
d3 cBc|dcB ABc|ded cBc|d3 ABc|ded cBc|dcB ABc| ded cBc|d3 F2G | 
A2d F2G|A2F D2D|E2F GFE|A2F D2(E/!3!F/G/)|A2d F2G|A2F D2D|E2F GEC|D3 D3|| 

